X:29
T:Danse de Hercules oft maticine
C:Tielman Susato
B:Tielman Susato: Danserye (1551) no. 29
R:Branle
Z:Transcribed by Frank Nordberg - http://www.musicaviva.com
F:http://abc.musicaviva.com/tunes/susato-tielman/susato-1551-29.abc
M:4/2
L:1/2
K:C
V:1
C>DEE|D>EFF|C>DEE|D2D2|C>DEE|D>EFF|ECDB,|C2C2:|
V:2
G,2CC|B,2A,3/2G,//F,//|E,A,G,>A,|B,2B,2|G,2CC|B,2A,F,|G,A,B,G,|G,2G,2:|
V:3
E,>F,G,G,|G,2F,>G,|A,E,E,>F,|G,3/2F,//E,//D,2|E,>F,G,G,|G,2F,D,|E,F,D,2|C,2C,2:|
V:4
C,2C,C,|G,,/A,,/B,,/C,/D,D,|A,,>B,,C,C,|G,,2G,,2|C,2C,C,|G,,/A,,/B,,/C,/D,D,|C,A,,G,,2|C,2C,2:|
W:
W:
W:  From Musica Viva - http://www.musicaviva.com
W:  the Internet center for free sheet music downloads.
